icons/bug-2-fill.svg

<svg xmlns="http://www.w3.org/2000/svg" width="24" height="24" fill="none"><g clip-path="url(#a)"><g><path fill="#121212" d="M5.07 16C5.023 15.6687 4.99961 15.3346 5 15V14H3V12H5V11C5 10.66 5.024 10.327 5.07 10H3V8H5.674C6.28697 6.71151 7.27751 5.64005 8.514 4.928L7.464 3.878L8.88 2.465L10.563 4.149C11.5114 3.9508 12.4906 3.9508 13.439 4.149L15.122 2.465L16.537 3.88L15.487 4.93C16.7228 5.64168 17.713 6.71239 18.326 8H21V10H18.93C18.976 10.327 19 10.66 19 11V12H21V14H19V15C19 15.34 18.976 15.673 18.93 16H21V18H18.326C17.7586 19.1976 16.8629 20.2096 15.7431 20.9182C14.6232 21.6269 13.3252 22.003 12 22.003C10.6748 22.003 9.37677 21.6269 8.25692 20.9182C7.13707 20.2096 6.24138 19.1976 5.674 18H3V16H5.07ZM9 10V12H15V10H9ZM9 14V16H15V14H9Z"/></g></g><defs><clipPath id="a"><rect width="24" height="24" fill="white"/></clipPath></defs></svg>

<svg width="24" height="24" fill="none" xmlns="http://www.w3.org/2000/svg"><g clip-path="url(#a)"><path d="M5.07 16A7.06 7.06 0 0 1 5 15v-1H3v-2h2v-1c0-.34.024-.673.07-1H3V8h2.674a7.03 7.03 0 0 1 2.84-3.072l-1.05-1.05L8.88 2.465l1.683 1.684a7.03 7.03 0 0 1 2.876 0l1.683-1.684 1.415 1.415-1.05 1.05A7.03 7.03 0 0 1 18.326 8H21v2h-2.07c.046.327.07.66.07 1v1h2v2h-2v1c0 .34-.024.673-.07 1H21v2h-2.674a7 7 0 0 1-12.652 0H3v-2h2.07ZM9 10v2h6v-2H9Zm0 4v2h6v-2H9Z" /></g><defs><clipPath id="a"><path fill="#fff" d="M0 0h24v24H0z"/></clipPath></defs></svg>
